assets/svg/diamond-o.svg

<?xml version="1.0" encoding="UTF-8"?>
<svg width="1000px" height="1000px" viewBox="0 0 1000 1000" version="1.1" xmlns="http://www.w3.org/2000/svg" xmlns:xlink="http://www.w3.org/1999/xlink">
    <!-- Generator: sketchtool 52.4 (67378) - http://www.bohemiancoding.com/sketch -->
    <title>diamond-o</title>
    <desc>Created with sketchtool.</desc>
    <g id="新版图标" stroke="none" stroke-width="1" fill="none" fill-rule="evenodd">
        <g id="diamond-o" fill="#323233" fill-rule="nonzero">
            <g id="圆角-积分">
                <path d="M116.009177,405.663936 L500.036957,829.397659 L883.991789,405.74462 L762.017627,222.222251 L237.926286,222.222219 L116.009177,405.663936 Z M65.6223649,432.796323 C53.7070702,419.672342 52.2303633,401.195542 61.9340182,386.659023 L195.252014,186.062836 C203.307934,174.010831 217.768129,166.649932 233.360043,166.666695 L766.639845,166.666695 C782.24935,166.666695 796.714432,174.059356 804.746896,186.145771 L938.068801,386.741958 C947.769524,401.274947 946.29184,419.751748 934.376546,432.879258 L534.418649,874.189987 C525.967898,883.508675 513.322557,888.906491 499.980398,888.888846 C486.638239,888.875611 474.009512,883.446915 465.580262,874.107052 L65.6223649,432.796323 Z M278.277778,333.333333 C278.001635,333.333333 277.777778,333.557191 277.777778,333.833333 L277.777778,388.388889 C277.777778,388.665031 278.001635,388.888889 278.277778,388.888889 L721.722222,388.888889 C721.998365,388.888889 722.222222,388.665031 722.222222,388.388889 L722.222222,333.833333 C722.222222,333.557191 721.998365,333.333333 721.722222,333.333333 L278.277778,333.333333 Z" id="Combined-Shape"></path>
            </g>
        </g>
    </g>
</svg>

<svg width="1000" height="1000" xmlns="http://www.w3.org/2000/svg"><path d="M116.01 405.664l384.027 423.734 383.955-423.653-121.974-183.523H237.926L116.01 405.664zm-50.388 27.132c-11.915-13.124-13.392-31.6-3.688-46.137l133.318-200.596c8.056-12.052 22.516-19.413 38.108-19.396h533.28c15.61 0 30.074 7.392 38.107 19.479l133.322 200.596c9.7 14.533 8.223 33.01-3.692 46.137L534.419 874.19c-8.451 9.319-21.096 14.716-34.439 14.699-13.342-.013-25.97-5.442-34.4-14.782L65.622 432.797zm212.656-99.463a.5.5 0 0 0-.5.5v54.556a.5.5 0 0 0 .5.5h443.444a.5.5 0 0 0 .5-.5v-54.556a.5.5 0 0 0-.5-.5H278.278z" fill="#323233" fill-rule="nonzero"/></svg>
